apps/22/internet-feed-reader.svg

<?xml version="1.0" encoding="UTF-8" standalone="no"?>
<!-- Created with Inkscape (http://www.inkscape.org/) -->

<svg
   xmlns:svg="http://www.w3.org/2000/svg"
   xmlns="http://www.w3.org/2000/svg"
   xmlns:xlink="http://www.w3.org/1999/xlink"
   version="1.0"
   width="22"
   height="22"
   id="svg2">
  <defs
     id="defs4">
    <linearGradient
       id="linearGradient3217">
      <stop
         id="stop3219"
         style="stop-color:white;stop-opacity:1"
         offset="0" />
      <stop
         id="stop3221"
         style="stop-color:white;stop-opacity:0"
         offset="1" />
    </linearGradient>
    <linearGradient
       id="linearGradient3811">
      <stop
         id="stop3813"
         style="stop-color:#a2440b;stop-opacity:1"
         offset="0" />
      <stop
         id="stop3815"
         style="stop-color:#e2722f;stop-opacity:1"
         offset="1" />
    </linearGradient>
    <linearGradient
       id="linearGradient5106">
      <stop
         id="stop5108"
         style="stop-color:#f39950;stop-opacity:1"
         offset="0" />
      <stop
         id="stop5110"
         style="stop-color:#cf630f;stop-opacity:1"
         offset="1" />
    </linearGradient>
    <linearGradient
       x1="10.519157"
       y1="44.177509"
       x2="10.519157"
       y2="1.5379653"
       id="linearGradient2460"
       xlink:href="#linearGradient3811"
       gradientUnits="userSpaceOnUse"
       gradientTransform="matrix(0.4632705,0,0,0.4637156,0.4026863,0.4722062)" />
    <linearGradient
       x1="10.519157"
       y1="44.177509"
       x2="10.519157"
       y2="1.5379653"
       id="linearGradient2463"
       xlink:href="#linearGradient3811"
       gradientUnits="userSpaceOnUse"
       gradientTransform="matrix(0.458318,0,0,0.4590409,0.430592,0.659125)" />
    <linearGradient
       x1="10.519157"
       y1="44.177509"
       x2="10.519157"
       y2="1.5379653"
       id="linearGradient2466"
       xlink:href="#linearGradient3811"
       gradientUnits="userSpaceOnUse"
       gradientTransform="matrix(0.4632705,0,0,0.4637156,0.4026863,0.4722062)" />
    <linearGradient
       x1="21.238298"
       y1="0.71480572"
       x2="21.238298"
       y2="44.02142"
       id="linearGradient2469"
       xlink:href="#linearGradient3217"
       gradientUnits="userSpaceOnUse"
       gradientTransform="matrix(0.4706699,0,0,0.4685079,-0.3180856,0.894244)" />
    <linearGradient
       x1="-23.245302"
       y1="11.918293"
       x2="-23.245302"
       y2="42.469013"
       id="linearGradient2472"
       xlink:href="#linearGradient5106"
       gradientUnits="userSpaceOnUse"
       gradientTransform="matrix(0.4955591,0,0,0.4955592,22.280571,0.2412399)" />
    <linearGradient
       x1="24"
       y1="43.538155"
       x2="24"
       y2="0"
       id="linearGradient2474"
       xlink:href="#linearGradient3811"
       gradientUnits="userSpaceOnUse"
       gradientTransform="matrix(0.4955591,0,0,0.4955592,-0.8934189,0.2412399)" />
  </defs>
  <g
     id="layer1">
    <rect
       width="21.021961"
       height="21.021961"
       rx="1.5869058"
       ry="1.586906"
       x="0.48901936"
       y="0.48901936"
       id="rect2581"
       style="fill:url(#linearGradient2472);fill-opacity:1;stroke:url(#linearGradient2474);stroke-width:0.97803867;stroke-linecap:round;stroke-linejoin:miter;stroke-miterlimit:4;stroke-opacity:1;stroke-dasharray:none;stroke-dashoffset:0" />
    <rect
       width="19.073219"
       height="19.073219"
       rx="0.69207203"
       ry="0.68884915"
       x="1.4633907"
       y="1.4633901"
       id="rect3368"
       style="opacity:0.4;fill:none;stroke:url(#linearGradient2469);stroke-width:0.92678124;stroke-linecap:round;stroke-linejoin:miter;stroke-miterlimit:4;stroke-opacity:1;stroke-dasharray:none;stroke-dashoffset:0" />
    <path
       d="m 3.5481329,16.890497 c 0,-0.463206 0.1599721,-0.852079 0.4799112,-1.166622 0.3199441,-0.320238 0.7113013,-0.480364 1.1740759,-0.480376 0.4513412,1.2e-5 0.8341328,0.160138 1.1483644,0.480376 0.3199395,0.314543 0.4799064,0.703416 0.4799109,1.166622 -4.5e-6,0.451792 -0.1599714,0.837806 -0.4799109,1.158044 C 6.0362528,18.363085 5.6534612,18.520348 5.20212,18.520338 4.7393454,18.520348 4.3479882,18.363085 4.0280441,18.048541 3.708105,17.734023 3.5481329,17.348008 3.5481329,16.890497"
       id="path3349"
       style="font-size:13.58991337px;font-style:normal;font-variant:normal;font-weight:bold;font-stretch:normal;text-align:start;line-height:125%;writing-mode:lr-tb;text-anchor:start;fill:white;fill-opacity:1;stroke:url(#linearGradient2466);stroke-width:0.91475278;stroke-linecap:round;stroke-linejoin:round;stroke-miterlimit:4;stroke-opacity:1;stroke-dasharray:none;font-family:Bitstream Vera Serif" />
    <path
       d="m 3.4526263,9.4526255 0,2.7399005 c 3.5011541,0 6.3448408,2.848172 6.3448408,6.354848 l 2.7499069,0 c 0,-5.023077 -4.0795807,-9.0947485 -9.0947477,-9.0947485 z"
       id="path3347"
       style="font-size:13.58991337px;font-style:normal;font-variant:normal;font-weight:bold;font-stretch:normal;text-align:start;line-height:125%;writing-mode:lr-tb;text-anchor:start;fill:white;fill-opacity:1;stroke:url(#linearGradient2463);stroke-width:0.9052524;stroke-linecap:round;stroke-linejoin:round;stroke-miterlimit:4;stroke-opacity:1;stroke-dasharray:none;font-family:Bitstream Vera Serif" />
    <path
       d="m 3.4573765,3.4573753 0,3.0286425 c 6.6475575,0 12.0450355,5.4026622 12.0450355,12.0566042 l 3.040212,0 c 0,-8.329395 -6.763846,-15.0852467 -15.0852475,-15.0852467 z"
       id="path3365"
       style="font-size:13.58991337px;font-style:normal;font-variant:normal;font-weight:bold;font-stretch:normal;text-align:start;line-height:125%;writing-mode:lr-tb;text-anchor:start;fill:white;fill-opacity:1;stroke:url(#linearGradient2460);stroke-width:0.91475278;stroke-linecap:round;stroke-linejoin:round;stroke-miterlimit:4;stroke-opacity:1;stroke-dasharray:none;font-family:Bitstream Vera Serif" />
  </g>
</svg>

<?xml version="1.0" encoding="UTF-8" standalone="no"?>
<!-- Created with Inkscape (http://www.inkscape.org/) -->
<svg
   xmlns:dc="http://purl.org/dc/elements/1.1/"
   xmlns:cc="http://creativecommons.org/ns#"
   xmlns:rdf="http://www.w3.org/1999/02/22-rdf-syntax-ns#"
   xmlns:svg="http://www.w3.org/2000/svg"
   xmlns="http://www.w3.org/2000/svg"
   xmlns:xlink="http://www.w3.org/1999/xlink"
   xmlns:sodipodi="http://sodipodi.sourceforge.net/DTD/sodipodi-0.dtd"
   xmlns:inkscape="http://www.inkscape.org/namespaces/inkscape"
   width="22"
   height="22"
   id="svg2"
   sodipodi:version="0.32"
   inkscape:version="0.46"
   version="1.0"
   sodipodi:docname="news-feed.svg"
   inkscape:output_extension="org.inkscape.output.svg.inkscape">
  <defs
     id="defs4">
    <linearGradient
       inkscape:collect="always"
       id="linearGradient3217">
      <stop
         style="stop-color:#ffffff;stop-opacity:1;"
         offset="0"
         id="stop3219" />
      <stop
         style="stop-color:#ffffff;stop-opacity:0"
         offset="1"
         id="stop3221" />
    </linearGradient>
    <linearGradient
       id="linearGradient3811">
      <stop
         style="stop-color:#a2440b;stop-opacity:1;"
         offset="0"
         id="stop3813" />
      <stop
         style="stop-color:#e2722f;stop-opacity:1;"
         offset="1"
         id="stop3815" />
    </linearGradient>
    <linearGradient
       id="linearGradient5106">
      <stop
         id="stop5108"
         offset="0"
         style="stop-color:#f39950;stop-opacity:1;" />
      <stop
         id="stop5110"
         offset="1"
         style="stop-color:#cf630f;stop-opacity:1;" />
    </linearGradient>
    <linearGradient
       inkscape:collect="always"
       xlink:href="#linearGradient3811"
       id="linearGradient2460"
       gradientUnits="userSpaceOnUse"
       gradientTransform="matrix(0.4632705,0,0,0.4637156,0.4026863,0.4722062)"
       x1="10.519157"
       y1="44.177509"
       x2="10.519157"
       y2="1.5379653" />
    <linearGradient
       inkscape:collect="always"
       xlink:href="#linearGradient3811"
       id="linearGradient2463"
       gradientUnits="userSpaceOnUse"
       gradientTransform="matrix(0.458318,0,0,0.4590409,0.430592,0.659125)"
       x1="10.519157"
       y1="44.177509"
       x2="10.519157"
       y2="1.5379653" />
    <linearGradient
       inkscape:collect="always"
       xlink:href="#linearGradient3811"
       id="linearGradient2466"
       gradientUnits="userSpaceOnUse"
       gradientTransform="matrix(0.4632705,0,0,0.4637156,0.4026863,0.4722062)"
       x1="10.519157"
       y1="44.177509"
       x2="10.519157"
       y2="1.5379653" />
    <linearGradient
       inkscape:collect="always"
       xlink:href="#linearGradient3217"
       id="linearGradient2469"
       gradientUnits="userSpaceOnUse"
       gradientTransform="matrix(0.4706699,0,0,0.4685079,-0.3180856,0.894244)"
       x1="21.238298"
       y1="0.71480572"
       x2="21.238298"
       y2="44.02142" />
    <linearGradient
       inkscape:collect="always"
       xlink:href="#linearGradient5106"
       id="linearGradient2472"
       gradientUnits="userSpaceOnUse"
       gradientTransform="matrix(0.4955591,0,0,0.4955592,22.280571,0.2412399)"
       x1="-23.245302"
       y1="11.918293"
       x2="-23.245302"
       y2="42.469013" />
    <linearGradient
       inkscape:collect="always"
       xlink:href="#linearGradient3811"
       id="linearGradient2474"
       gradientUnits="userSpaceOnUse"
       gradientTransform="matrix(0.4955591,0,0,0.4955592,-0.8934189,0.2412399)"
       x1="24"
       y1="43.538155"
       x2="24"
       y2="0" />
  </defs>
  <sodipodi:namedview
     id="base"
     pagecolor="#ffffff"
     bordercolor="#666666"
     borderopacity="1.0"
     gridtolerance="10000"
     guidetolerance="10"
     objecttolerance="10"
     inkscape:pageopacity="0.0"
     inkscape:pageshadow="2"
     inkscape:zoom="1"
     inkscape:cx="12"
     inkscape:cy="12"
     inkscape:document-units="px"
     inkscape:current-layer="layer1"
     showgrid="false"
     inkscape:window-width="673"
     inkscape:window-height="720"
     inkscape:window-x="765"
     inkscape:window-y="24"
     inkscape:showpageshadow="false"
     showborder="false" />
  <metadata
     id="metadata7">
    <rdf:RDF>
      <cc:Work
         rdf:about="">
        <dc:format>image/svg+xml</dc:format>
        <dc:type
           rdf:resource="http://purl.org/dc/dcmitype/StillImage" />
      </cc:Work>
    </rdf:RDF>
  </metadata>
  <g
     inkscape:label="Layer 1"
     inkscape:groupmode="layer"
     id="layer1">
    <rect
       style="fill:url(#linearGradient2472);fill-opacity:1;stroke:url(#linearGradient2474);stroke-width:0.97803867;stroke-linecap:round;stroke-linejoin:miter;stroke-miterlimit:4;stroke-dasharray:none;stroke-dashoffset:0;stroke-opacity:1"
       id="rect2581"
       width="21.021961"
       height="21.021961"
       x="0.48901936"
       y="0.48901936"
       rx="1.5869058"
       ry="1.586906" />
    <rect
       style="opacity:0.4;fill:none;fill-opacity:1;stroke:url(#linearGradient2469);stroke-width:0.92678123999999995;stroke-linecap:round;stroke-linejoin:miter;stroke-miterlimit:4;stroke-dasharray:none;stroke-dashoffset:0;stroke-opacity:1"
       id="rect3368"
       width="19.073219"
       height="19.073219"
       x="1.4633907"
       y="1.4633901"
       rx="0.69207203"
       ry="0.68884915" />
    <path
       style="font-size:13.58991337px;font-style:normal;font-variant:normal;font-weight:bold;font-stretch:normal;text-align:start;line-height:125%;writing-mode:lr-tb;text-anchor:start;fill:#ffffff;fill-opacity:1;stroke:url(#linearGradient2466);stroke-width:0.91475278;stroke-linecap:round;stroke-linejoin:round;stroke-miterlimit:4;stroke-dasharray:none;stroke-opacity:1;font-family:Bitstream Vera Serif"
       d="M 3.5481329,16.890497 C 3.5481329,16.427291 3.708105,16.038418 4.0280441,15.723875 C 4.3479882,15.403637 4.7393454,15.243511 5.20212,15.243499 C 5.6534612,15.243511 6.0362528,15.403637 6.3504844,15.723875 C 6.6704239,16.038418 6.8303908,16.427291 6.8303953,16.890497 C 6.8303908,17.342289 6.6704239,17.728303 6.3504844,18.048541 C 6.0362528,18.363085 5.6534612,18.520348 5.20212,18.520338 C 4.7393454,18.520348 4.3479882,18.363085 4.0280441,18.048541 C 3.708105,17.734023 3.5481329,17.348008 3.5481329,16.890497"
       id="path3349" />
    <path
       style="font-size:13.58991337px;font-style:normal;font-variant:normal;font-weight:bold;font-stretch:normal;text-align:start;line-height:125%;writing-mode:lr-tb;text-anchor:start;fill:#ffffff;fill-opacity:1;stroke:url(#linearGradient2463);stroke-width:0.9052524;stroke-linecap:round;stroke-linejoin:round;stroke-miterlimit:4;stroke-dasharray:none;stroke-opacity:1;font-family:Bitstream Vera Serif"
       d="M 3.4526263,9.4526255 L 3.4526263,12.192526 C 6.9537804,12.192526 9.7974671,15.040698 9.7974671,18.547374 L 12.547374,18.547374 C 12.547374,13.524297 8.4677933,9.4526255 3.4526263,9.4526255 z"
       id="path3347" />
    <path
       style="font-size:13.58991337px;font-style:normal;font-variant:normal;font-weight:bold;font-stretch:normal;text-align:start;line-height:125%;writing-mode:lr-tb;text-anchor:start;fill:#ffffff;fill-opacity:1;stroke:url(#linearGradient2460);stroke-width:0.91475278;stroke-linecap:round;stroke-linejoin:round;stroke-miterlimit:4;stroke-dasharray:none;stroke-opacity:1;font-family:Bitstream Vera Serif"
       d="M 3.4573765,3.4573753 L 3.4573765,6.4860178 C 10.104934,6.4860178 15.502412,11.88868 15.502412,18.542622 L 18.542624,18.542622 C 18.542624,10.213227 11.778778,3.4573753 3.4573765,3.4573753 z"
       id="path3365" />
  </g>
</svg>
